**kern	**silbe	**harmony	**phrase	**leadinstrument	**rhyme	**timestamp	**harte
*ICvox	*	*M12/8	*	*	*	*	*M12/8
*VRlead	*	*	*	*	*	*	*
*Hstimme	*	*	*	*	*	*	*
*e:	*	*e:	*e:	*e:	*	*e:	*e:
*M12/8	*	*	*	*	*	*	*
*clefG2	*	*	*	*	*	*	*
r;	.	1r;	.	r	.	0	N.C.
r;	.	1r;	.	r	.	0.051	N.C.
=1	=1	=1	=1	=1	=1	=1	=1
*>Letter>A	*>Letter>A	*>Letter>A	*>Letter>A	*>Letter>A	*>Letter>A	*>Letter>A	*>Letter>A
*>Label>Intro	*>Label>Intro	*>Label>Intro	*>Label>Intro	*>Label>Intro	*>Label>Intro	*>Label>Intro	*>Label>Intro
1.r	.	1.Em	newline	guitar	.	2.21	E:min
=2	=2	=2	=2	=2	=2	=2	=2
2.r	.	1.Em	.	guitar	.	5.563	E:min
4.r	.	.	.	.	.	.	.
8r	.	.	.	.	.	.	.
16r	.	.	.	.	.	.	.
16B	I	.	.	.	.	.	.
16e	put	.	.	.	.	.	.
16e	a	.	.	.	.	.	.
=3	=3	=3	=3	=3	=3	=3	=3
*>Letter>A	*>Letter>A	*>Letter>A	*>Letter>A	*>Letter>A	*>Letter>A	*>Letter>A	*>Letter>A
*>Label>Verse	*>Label>Verse	*>Label>Verse	*>Label>Verse	*>Label>Verse	*>Label>Verse	*>Label>Verse	*>Label>Verse
16g	spell	1.Em	newline	voice	.	8.916	E:min
[16e	on	.	.	.	.	.	.
16e]	_	.	.	.	.	.	.
[8.e	you	.	.	.	A	.	.
16e]	_	.	.	.	.	.	.
16d	_	.	.	.	.	.	.
16B	_	.	.	.	.	.	.
16r	.	.	.	.	.	.	.
8r	.	.	.	.	.	.	.
2.r	.	.	.	.	.	.	.
=4	=4	=4	=4	=4	=4	=4	=4
2.r	.	1.Am	.	voice	.	12.27	A:min
8r	.	.	.	.	.	.	.
16e	Be-	.	.	.	.	.	.
[8.a	-cause	.	.	.	.	.	.
8.a]	_	.	.	.	.	.	.
8.g	you're	.	.	.	.	.	.
=5	=5	=5	=5	=5	=5	=5	=5
8.f#	mine	1.Em	.	voice	B	15.625	E:min
[8.e	_	.	.	.	.	.	.
8e]	_	.	.	.	.	.	.
16d	_	.	.	.	.	.	.
16B	_	.	.	.	.	.	.
8r	.	.	.	.	.	.	.
2.r	.	.	.	.	.	.	.
=6	=6	=6	=6	=6	=6	=6	=6
2.r	.	1.Em	.	voice	.	18.979	E:min
4.r	.	.	.	.	.	.	.
8r	.	.	.	.	.	.	.
16g	You	.	.	.	.	.	.
16g	bet-	.	.	.	.	.	.
8g	-ter	.	.	.	.	.	.
=7	=7	=7	=7	=7	=7	=7	=7
8g	stop	1.Am	newline	voice	.	22.333	A:min
16e	the	.	.	.	.	.	.
[16e	things	.	.	.	.	.	.
8e_	_	.	.	.	.	.	.
8e]	_	.	.	.	.	.	.
16e	that	.	.	.	.	.	.
16d	you're	.	.	.	.	.	.
[8e	do	.	.	.	(A	.	.
16e]	_	.	.	.	.	.	.
16d	_	.	.	.	.	.	.
8c	ing.	.	.	.	a)	.	.
8r	.	.	.	.	.	.	.
4.r	.	.	.	.	.	.	.
=8	=8	=8	=8	=8	=8	=8	=8
4.r	.	1.Am	.	voice	.	25.642	A:min
8r	.	.	.	.	.	.	.
16r	.	.	.	.	.	.	.
16g	I	.	.	.	.	.	.
16g	said,	.	.	.	.	.	.
16e	a'-	.	.	.	.	.	.
8g	-watch	.	.	.	.	.	.
8g	out!	.	.	.	.	.	.
8r	.	.	.	.	.	.	.
8r	.	.	.	.	.	.	.
16r	.	.	.	.	.	.	.
16B	I	.	.	.	.	.	.
8B	ain't	.	.	.	.	.	.
=9	=9	=9	=9	=9	=9	=9	=9
8d#	ly-	1.BMm	.	voice	(B	28.951	B:7
[4B	-ing	.	.	.	b)	.	.
8B]	.	.	.	.	.	.	.
8r	.	.	.	.	.	.	.
8r	.	.	.	.	.	.	.
2.r	.	.	.	.	.	.	.
=10	=10	=10	=10	=10	=10	=10	=10
4.r	.	1.BMm	.	voice	.	32.26	B:7
[4.a	Yeah!	.	.	.	.	.	.
4a]	_	.	.	.	.	.	.
[8b	_	.	.	.	.	.	.
4b]	_	.	.	.	.	.	.
8r	.	.	.	.	.	.	.
=11	=11	=11	=11	=11	=11	=11	=11
4.r	.	1.Em	newline	voice	.	35.569	E:min
16.b	I	.	.	.	.	.	.
16.e	ain't	.	.	.	.	.	.
16.e	gon-	.	.	.	.	.	.
16.d	-na	.	.	.	.	.	.
8e	take	.	.	.	.	.	.
16e	none	.	.	.	.	.	.
16d	a'-	.	.	.	.	.	.
8e	-your...	.	.	.	.	.	.
4.r	.	.	.	.	.	.	.
=12	=12	=12	=12	=12	=12	=12	=12
4.r	.	1.Em	.	voice	.	38.816	E:min
16.g	foo-	.	.	.	.	.	.
16.e	-ling	.	.	.	.	.	.
16.e	a-	.	.	.	.	.	.
[16.e	-round!	.	.	.	C	.	.
8e]	_	.	.	.	.	.	.
16d	_	.	.	.	.	.	.
16B	_	.	.	.	.	.	.
8r	.	.	.	.	.	.	.
4.r	.	.	.	.	.	.	.
=13	=13	=13	=13	=13	=13	=13	=13
4r	.	1.Am	.	voice	.	42.063	A:min
16r	.	.	.	.	.	.	.
16e	I	.	.	.	.	.	.
8.g	ain't	.	.	.	.	.	.
16.g	gon-	.	.	.	.	.	.
16.e	-na	.	.	.	.	.	.
8g	take	.	.	.	.	.	.
16g	none	.	.	.	.	.	.
16e	a'-	.	.	.	.	.	.
[8g	-your	.	.	.	.	.	.
4.g]	.	.	.	.	.	.	.
=14	=14	=14	=14	=14	=14	=14	=14
4r	.	1.CM	.	voice	.	45.31	C:maj
16r	.	.	.	.	.	.	.
16B	a'-	.	.	.	.	.	.
8g	-put-	.	.	.	.	.	.
16g	-me-	.	.	.	.	.	.
16e	-down!	.	.	.	C	.	.
[8g	_	.	.	.	.	.	.
16g]	_	.	.	.	.	.	.
16r	.	.	.	.	.	.	.
4r	.	.	.	.	.	.	.
8r	.	.	.	.	.	.	.
16B	I	.	.	.	.	.	.
16B	put	.	.	.	.	.	.
8e	a	.	.	.	.	.	.
=15	=15	=15	=15	=15	=15	=15	=15
16g	spell	1.Em	newline	voice	.	48.557	E:min
[16e	on	.	.	.	.	.	.
8e]	_	.	.	.	.	.	.
[8e	you	.	.	.	A	.	.
16e]	_	.	.	.	.	.	.
16d	_	.	.	.	.	.	.
8B	.	.	.	.	.	.	.
8r	.	.	.	.	.	.	.
2.r	.	.	.	.	.	.	.
=16	=16	=16	=16	=16	=16	=16	=16
2.r	.	1.BMm	.	voice	.	51.816	B:7
8r	.	.	.	.	.	.	.
32B	Be-	.	.	.	.	.	.
[16.a	-cause	.	.	.	.	.	.
8a_	_	.	.	.	.	.	.
8.a]	_	.	.	.	.	.	.
8.g	you're	.	.	.	.	.	.
=17	=17	=17	=17	=17	=17	=17	=17
8.f#	mine!	2.Em	.	voice	B	55.075	E:min
8.e	_	.	.	.	.	.	.
8r	.	.	.	.	.	.	.
[4g	Whoa,	.	.	.	.	.	.
8g]	_	2.Am	.	voice	.	56.704	A:min
8g	al-	.	.	.	.	.	.
8g	-right!	.	.	.	B	.	.
4.r	.	.	.	.	.	.	.
=18	=18	=18	=18	=18	=18	=18	=18
1.r	.	1.BMm	.	voice	.	58.334	B:7
=19	=19	=19	=19	=19	=19	=19	=19
*>Letter>A	*>Letter>A	*>Letter>A	*>Letter>A	*>Letter>A	*>Letter>A	*>Letter>A	*>Letter>A
*>Label>Solo	*>Label>Solo	*>Label>Solo	*>Label>Solo	*>Label>Solo	*>Label>Solo	*>Label>Solo	*>Label>Solo
1.r	.	1.Em	newline	guitar	.	61.593	E:min
=20	=20	=20	=20	=20	=20	=20	=20
1.r	.	1.Am	.	guitar	.	64.801	A:min
=21	=21	=21	=21	=21	=21	=21	=21
1.r	.	1.Em	.	guitar	.	68.009	E:min
=22	=22	=22	=22	=22	=22	=22	=22
1.r	.	1.Em	.	guitar	.	71.217	E:min
=23	=23	=23	=23	=23	=23	=23	=23
1.r	.	1.Am	newline	guitar	.	74.425	A:min
=24	=24	=24	=24	=24	=24	=24	=24
1.r	.	1.Am	.	guitar	.	77.64	A:min
=25	=25	=25	=25	=25	=25	=25	=25
1.r	.	1.BMm	.	guitar	.	80.855	B:7
=26	=26	=26	=26	=26	=26	=26	=26
1.r	.	1.BMm	.	guitar	.	84.071	B:7
=27	=27	=27	=27	=27	=27	=27	=27
1.r	.	1.Em	newline	guitar	.	87.286	E:min
=28	=28	=28	=28	=28	=28	=28	=28
1.r	.	1.Em	.	guitar	.	90.414	E:min
=29	=29	=29	=29	=29	=29	=29	=29
1.r	.	1.Am	.	guitar	.	93.543	A:min
=30	=30	=30	=30	=30	=30	=30	=30
1.r	.	1.CM	.	guitar	.	96.671	C:maj
=31	=31	=31	=31	=31	=31	=31	=31
1.r	.	1.Em	newline	guitar	.	99.8	E:min
=32	=32	=32	=32	=32	=32	=32	=32
1.r	.	1.BMm	.	guitar	.	102.954	B:7
=33	=33	=33	=33	=33	=33	=33	=33
1.r	.	2.Em	.	guitar	.	106.109	E:min
.	.	2.Am	.	guitar	.	107.687	A:min
=34	=34	=34	=34	=34	=34	=34	=34
1.r	.	2.BMm	.	guitar	.	109.264	B:7
.	.	2.CM	.	guitar	.	110.842	C:maj
=35	=35	=35	=35	=35	=35	=35	=35
1.r	.	2.FM	newline	guitar	.	112.419	F:maj
.	.	2.DM	.	guitar	.	114.014	D:maj
=36	=36	=36	=36	=36	=36	=36	=36
1.r	.	2.GM	.	guitar	.	115.608	G:maj
.	.	2.AM	.	guitar	.	117.203	A:maj
=37	=37	=37	=37	=37	=37	=37	=37
*>Letter>A	*>Letter>A	*>Letter>A	*>Letter>A	*>Letter>A	*>Letter>A	*>Letter>A	*>Letter>A
*>Label>Solo	*>Label>Solo	*>Label>Solo	*>Label>Solo	*>Label>Solo	*>Label>Solo	*>Label>Solo	*>Label>Solo
1.r	.	1.Em	newline	guitar	.	118.798	E:min
=38	=38	=38	=38	=38	=38	=38	=38
1.r	.	1.Am	.	guitar	.	121.96	A:min
=39	=39	=39	=39	=39	=39	=39	=39
1.r	.	1.Em	.	guitar	.	125.122	E:min
=40	=40	=40	=40	=40	=40	=40	=40
1.r	.	1.Em	.	guitar	.	128.285	E:min
=41	=41	=41	=41	=41	=41	=41	=41
1.r	.	1.Am	newline	guitar	.	131.447	A:min
=42	=42	=42	=42	=42	=42	=42	=42
1.r	.	1.Am	.	guitar	.	134.58	A:min
=43	=43	=43	=43	=43	=43	=43	=43
1.r	.	1.BMm	.	guitar	.	137.712	B:7
=44	=44	=44	=44	=44	=44	=44	=44
1.r	.	1.BMm	.	guitar	.	140.845	B:7
=45	=45	=45	=45	=45	=45	=45	=45
1.r	.	1.Em	newline	guitar	.	143.977	E:min
=46	=46	=46	=46	=46	=46	=46	=46
1.r	.	1.Em	.	guitar	.	147.082	E:min
=47	=47	=47	=47	=47	=47	=47	=47
1.r	.	1.Am	.	guitar	.	150.187	A:min
=48	=48	=48	=48	=48	=48	=48	=48
1.r	.	1.CM	.	guitar	.	153.292	C:maj
=49	=49	=49	=49	=49	=49	=49	=49
1.r	.	1.Em	newline	guitar	.	156.397	E:min
=50	=50	=50	=50	=50	=50	=50	=50
1.r	.	1.BMm	.	guitar	.	159.536	B:7
=51	=51	=51	=51	=51	=51	=51	=51
1.r	.	2.Em	.	guitar	.	162.675	E:min
.	.	2.Am	.	guitar	.	164.245	A:min
=52	=52	=52	=52	=52	=52	=52	=52
1.r	.	2.BMm	.	guitar	.	165.814	B:7
.	.	2.CM	.	guitar	.	167.384	C:maj
=53	=53	=53	=53	=53	=53	=53	=53
1.r	.	2.FM	newline	guitar	.	168.953	F:maj
.	.	2.DM	.	guitar	.	170.528	D:maj
=54	=54	=54	=54	=54	=54	=54	=54
2.r	.	2.GM	.	guitar	.	172.103	G:maj
4.r	.	2.AM	.	guitar	.	173.677	A:maj
8r	.	.	.	.	.	.	.
16r	.	.	.	.	.	.	.
16~e	I	.	.	.	.	.	.
16e	put	.	.	.	.	.	.
16e	a	.	.	.	.	.	.
=55	=55	=55	=55	=55	=55	=55	=55
*>Letter>A	*>Letter>A	*>Letter>A	*>Letter>A	*>Letter>A	*>Letter>A	*>Letter>A	*>Letter>A
*>Label>Verse	*>Label>Verse	*>Label>Verse	*>Label>Verse	*>Label>Verse	*>Label>Verse	*>Label>Verse	*>Label>Verse
16g	spell	1.Em	newline	voice	.	175.252	E:min
[16e	on	.	.	.	.	.	.
16e]	_	.	.	.	.	.	.
[8.e	you	.	.	.	A	.	.
8e]	_	.	.	.	.	.	.
16d	_	.	.	.	.	.	.
[16B	_	.	.	.	.	.	.
8B_	_	.	.	.	.	.	.
8.B]	.	.	.	.	.	.	.
16r	.	.	.	.	.	.	.
8r	.	.	.	.	.	.	.
4.r	.	.	.	.	.	.	.
=56	=56	=56	=56	=56	=56	=56	=56
2.r	.	1.Am	.	voice	.	178.411	A:min
8r	.	.	.	.	.	.	.
16.r	.	.	.	.	.	.	.
32e	Be-	.	.	.	.	.	.
[8a	-cause	.	.	.	.	.	.
8.a]	_	.	.	.	.	.	.
8.g	you're	.	.	.	.	.	.
=57	=57	=57	=57	=57	=57	=57	=57
8.f#	mine	1.Em	.	voice	B	181.57	E:min
[8.e	_	.	.	.	.	.	.
8e]	_	.	.	.	.	.	.
16d	_	.	.	.	.	.	.
16B	_	.	.	.	.	.	.
8r	.	.	.	.	.	.	.
2.r	.	.	.	.	.	.	.
=58	=58	=58	=58	=58	=58	=58	=58
2.r	.	1.Em	.	voice	.	184.729	E:min
4.r	.	.	.	.	.	.	.
8r	.	.	.	.	.	.	.
16g	You	.	.	.	.	.	.
16g	bet-	.	.	.	.	.	.
8g	-ter	.	.	.	.	.	.
=59	=59	=59	=59	=59	=59	=59	=59
8g	stop	1.Am	newline	voice	.	187.888	A:min
16e	the	.	.	.	.	.	.
[16e	things	.	.	.	.	.	.
8e_	_	.	.	.	.	.	.
8e]	_	.	.	.	.	.	.
8e	that	.	.	.	.	.	.
16d	you're	.	.	.	.	.	.
[16e	do	.	.	.	(A	.	.
8e_	_	.	.	.	.	.	.
16e]	_	.	.	.	.	.	.
16d	_	.	.	.	.	.	.
8B	ing.	.	.	.	a)	.	.
4.r	.	.	.	.	.	.	.
=60	=60	=60	=60	=60	=60	=60	=60
4.r	.	1.Am	.	voice	.	191.07	A:min
8r	.	.	.	.	.	.	.
16r	.	.	.	.	.	.	.
16g	I	.	.	.	.	.	.
16g	said,	.	.	.	.	.	.
16e	a'-	.	.	.	.	.	.
8g	-watch	.	.	.	.	.	.
4g	out!	.	.	.	.	.	.
8r	.	.	.	.	.	.	.
16r	.	.	.	.	.	.	.
16B	I	.	.	.	.	.	.
8B	ain't	.	.	.	.	.	.
=61	=61	=61	=61	=61	=61	=61	=61
8d#	ly-	1.BMm	.	voice	(B	194.251	B:7
[4B	-ing	.	.	.	b)	.	.
8.B]	.	.	.	.	.	.	.
16r	.	.	.	.	.	.	.
8r	.	.	.	.	.	.	.
2.r	.	.	.	.	.	.	.
=62	=62	=62	=62	=62	=62	=62	=62
4.r	.	1.BMm	.	voice	.	197.432	B:7
[4.a	Yeah!	.	.	.	.	.	.
4a]	_	.	.	.	.	.	.
[8b	_	.	.	.	.	.	.
4b]	_	.	.	.	.	.	.
8r	.	.	.	.	.	.	.
=63	=63	=63	=63	=63	=63	=63	=63
4r	.	1.Em	newline	voice	.	200.613	E:min
16r	.	.	.	.	.	.	.
16a	I	.	.	.	.	.	.
8.a#	ain't	.	.	.	.	.	.
16.e	gon-	.	.	.	.	.	.
16.d	-na	.	.	.	.	.	.
8e	take	.	.	.	.	.	.
16e	none	.	.	.	.	.	.
16d	a'-	.	.	.	.	.	.
[8e	-your	.	.	.	.	.	.
8e]	.	.	.	.	.	.	.
4r	.	.	.	.	.	.	.
=64	=64	=64	=64	=64	=64	=64	=64
4.r	.	1.Em	.	voice	.	203.776	E:min
16.g	foo-	.	.	.	.	.	.
16.e	-ling	.	.	.	.	.	.
16.e	a-	.	.	.	.	.	.
[16.e	-round	.	.	.	C	.	.
8e]	_	.	.	.	.	.	.
16d	_	.	.	.	.	.	.
[16B	_	.	.	.	.	.	.
8B]	_	.	.	.	.	.	.
4.r	.	.	.	.	.	.	.
=65	=65	=65	=65	=65	=65	=65	=65
4r	.	1.Am	.	voice	.	206.939	A:min
16r	.	.	.	.	.	.	.
16e	I	.	.	.	.	.	.
8.g	ain't	.	.	.	.	.	.
16.g	gon-	.	.	.	.	.	.
16.e	-na	.	.	.	.	.	.
8g	take	.	.	.	.	.	.
16g	none	.	.	.	.	.	.
16e	a'-	.	.	.	.	.	.
[8g	-your	.	.	.	.	.	.
4.g]	.	.	.	.	.	.	.
=66	=66	=66	=66	=66	=66	=66	=66
4r	.	1.CM	.	voice	.	210.102	C:maj
16r	.	.	.	.	.	.	.
16B	a'-	.	.	.	.	.	.
8g	-put-	.	.	.	.	.	.
16g	-me-	.	.	.	.	.	.
64f#	-down!	.	.	.	C	.	.
32.g	_	.	.	.	.	.	.
[8g	_	.	.	.	.	.	.
8g]	_	.	.	.	.	.	.
4r	.	.	.	.	.	.	.
8r	.	.	.	.	.	.	.
16B	I	.	.	.	.	.	.
16e	put	.	.	.	.	.	.
8e	a	.	.	.	.	.	.
=67	=67	=67	=67	=67	=67	=67	=67
16g	spell	1.Em	newline	voice	.	213.265	E:min
[16e	on	.	.	.	.	.	.
8e]	_	.	.	.	.	.	.
[8e	you	.	.	.	A	.	.
8e]	_	.	.	.	.	.	.
16d	_	.	.	.	.	.	.
[16B	_	.	.	.	.	.	.
8B]	_	.	.	.	.	.	.
2.r	.	.	.	.	.	.	.
=68	=68	=68	=68	=68	=68	=68	=68
2.r	.	1.BMm	.	voice	.	216.418	B:7
8r	.	.	.	.	.	.	.
32B	Be-	.	.	.	.	.	.
[16.a	-cause	.	.	.	.	.	.
8a_	_	.	.	.	.	.	.
8.a]	_	.	.	.	.	.	.
8.g	you're	.	.	.	.	.	.
=69	=69	=69	=69	=69	=69	=69	=69
8.f#	mine!	2.Em	.	voice	B	219.571	E:min
8.e	_	.	.	.	.	.	.
8r	.	.	.	.	.	.	.
[4g	Oh,	.	.	.	.	.	.
8g]	_	2.Am	.	voice	.	221.148	A:min
8g	_	.	.	.	.	.	.
[8g	_	.	.	.	.	.	.
16g]	_	.	.	.	.	.	.
[16g	_	.	.	.	.	.	.
8g]	_	.	.	.	.	.	.
8r	.	.	.	.	.	.	.
=70	=70	=70	=70	=70	=70	=70	=70
1.r	.	2.BMm	.	voice	.	222.724	B:7
.	.	2.CM	.	voice	.	224.301	C:maj
=71	=71	=71	=71	=71	=71	=71	=71
1.r	.	2.FM	newline	voice	.	225.877	F:maj
.	.	2.DM	.	voice	.	227.886	D:maj
=72	=72	=72	=72	=72	=72	=72	=72
1.r	.	2.GM	.	voice	.	229.895	G:maj
.	.	2.AM	.	voice	.	231.234	A:maj
=73	=73	=73	=73	=73	=73	=73	=73
1.r	.	1.Em	newline	guitar	.	233.913	E:min
r;	.	1r;	.	r	.	245.827	N.C.
r;	.	1r;	.	r	.	252.989	N.C.
r;	.	1r;	.	r	.	254.276	N.C.
*-	*-	*-	*-	*-	*-	*-	*-
!!!BillboardChartDate: 1968/11/16
!!!BillboardPeak: 58
!!!BillboardWeeksOnChart: 9
!!!COC: Creedence Clearwater Revival
!!!ENC: Nathaniel Condit-Schultz
!!!EST: Awating manual error checking and editing.
!!!OTL: I Put A Spell On You
!!!RDF**chordsym: original McGill chord annotation + (implied pitch class set, with bass pitch in first position)
!!!RDF**harmony: **recip + pitch class of root + harmonic quality
!!!RDF**leadinstrument: original McGill primary instrumentation annotation
!!!RDF**phrase: newline = linebreak in original McGill transcription
!!!RDF**timestamp: McGill audio timestamp in seconds
!!!RDT: 2017/01/12/
!!!SampleActualRank: 96
!!!SampleID#: 0061
!!!SampleTargetRank: 95
